src/24/actions/call-start.svg

<svg xmlns="http://www.w3.org/2000/svg" viewBox="0 0 24 24">
  <defs id="defs3051">
    <style type="text/css" id="current-color-scheme">
      .ColorScheme-Text {
        color:#5d656b;
      }
      </style>
  </defs>
 <path style="fill:currentColor;fill-opacity:1;stroke:none" 
     d="M 5.984375 4.0039062 C 5.6045825 4.0384326 5.328125 4.3144531 5.328125 4.3144531 L 4.6210938 5.0214844 L 4.2207031 5.421875 C 3.6301531 7.733025 4.2203364 10.275997 6.0351562 12.091797 L 11.908203 17.964844 C 13.724253 19.780894 16.266975 20.369847 18.578125 19.779297 L 18.978516 19.378906 L 19.685547 18.671875 C 19.685547 18.671875 20.392657 17.964933 19.685547 17.257812 L 16.644531 14.216797 C 15.937421 13.509687 15.230469 14.216797 15.230469 14.216797 L 14.876953 14.570312 C 14.289343 15.157924 13.343459 15.157912 12.755859 14.570312 L 9.4296875 11.244141 C 8.8420975 10.656551 8.8420775 9.7106669 9.4296875 9.1230469 L 9.7832031 8.7695312 C 9.7832031 8.7695312 10.490303 8.0625788 9.7832031 7.3554688 L 6.7421875 4.3144531 C 6.4770212 4.0492906 6.2122505 3.9831904 5.984375 4.0039062 z "
     class="ColorScheme-Text"
     />
</svg>

<svg xmlns="http://www.w3.org/2000/svg" viewBox="0 0 24 24"><path d="M5.984 4.004c-.38.034-.656.31-.656.31l-.707.707-.4.4c-.59 2.312 0 4.855 1.814 6.67l5.873 5.874c1.816 1.816 4.359 2.405 6.67 1.814l.4-.4.708-.707s.707-.707 0-1.414l-3.041-3.041c-.708-.707-1.415 0-1.415 0l-.353.353a1.496 1.496 0 0 1-2.121 0L9.43 11.244a1.496 1.496 0 0 1 0-2.121l.353-.353s.707-.707 0-1.415l-3.04-3.04c-.266-.266-.53-.332-.759-.311z" fill="currentColor" color="#5d656b"/></svg>
